X: 24838
T: Maggie's
R: reel
M: 4/4
K: Edorian
|:E2 G/F/E BEGE|D2 F/E/D ADFD|E2 G/F/E BEGA|B/c/d AF GEFD:|
E3 B BAFA|BAdA FADF|E3 B BAFA|BAdF GEFD|
E^DEB B2 F/G/A|BAdA F2 DF|E2 GE BEGA|B/c/d AF GEFD||

